X: 89
T: Monaghan Twig, The
M: 4/4
L: 1/8
R: reel
K: Amix
ed|cAAB cded|cAAG ~E2ed|cAAB cded|BAGB d2:|
A|cdef gfed|cdef ~e3A|cdef gfge|dBGB d2ed|
cded cded|cAAB cdef|~g3e dged|BAGB d2ed||

